;FLAVOR:Marlin
;TIME:4217
;Filament used: 2.31727m
;Layer height: 0.1
;Generated with Cura_SteamEngine 3.6.0
M140 S60
M105
M190 S60
M104 S200
M105
M109 S200
M82 ;absolute extrusion mode
G28 ;Home
G1 Z15.0 F6000 ;Move the platform down 15mm
;Prime the extruder
G92 E0
G1 F200 E3
G92 E0
G92 E0
G1 F1500 E-6.5
;LAYER_COUNT:219
;LAYER:0
M107
G0 F3600 X16.172 Y-3.167 Z0.3
;TYPE:SKIRT
G1 F1500 E0
G1 F1800 X-16.2 Y-3.195 E1.61505
G1 X-16.2 Y14 E2.47291
G1 X-16.24 Y14.789 E2.51232
G1 X-16.359 Y15.569 E2.55169
G1 X-16.557 Y16.334 E2.59111
G1 X-16.831 Y17.074 E2.63048
G1 X-17.179 Y17.783 E2.66988
G1 X-17.597 Y18.454 E2.70932
G1 X-18.08 Y19.078 E2.74869
G1 X-18.623 Y19.651 E2.78807
G1 X-19.222 Y20.166 E2.82749
G1 X-19.87 Y20.617 E2.86687
G1 X-20.561 Y21.001 E2.90631
G1 X-21.286 Y21.313 E2.94569
G1 X-22.039 Y21.55 E2.98508
G1 X-22.813 Y21.709 E3.0245
G1 X-23.598 Y21.79 E3.06387
G1 X-24 Y21.8 E3.08393
G1 X-27 Y21.8 E3.2336
G1 X-27.789 Y21.76 E3.27301
G1 X-28.569 Y21.641 E3.31238
G1 X-29.334 Y21.443 E3.3518
G1 X-30.074 Y21.169 E3.39117
G1 X-30.783 Y20.821 E3.43057
G1 X-31.454 Y20.403 E3.47002
G1 X-32.078 Y19.92 E3.50938
G1 X-32.651 Y19.377 E3.54877
G1 X-33.166 Y18.778 E3.58818
G1 X-33.617 Y18.13 E3.62757
G1 X-34.001 Y17.439 E3.66701
G1 X-34.313 Y16.714 E3.70638
G1 X-34.55 Y15.961 E3.74577
G1 X-34.709 Y15.187 E3.78519
G1 X-34.79 Y14.402 E3.82456
G1 X-34.8 Y13.989 E3.84517
G1 X-34.762 Y-12.403 E5.16188
G1 X-34.721 Y-13.192 E5.20129
G1 X-34.6 Y-13.972 E5.24067
G1 X-34.401 Y-14.736 E5.28006
G1 X-34.163 Y-15.388 E5.31469
G1 X-33.863 Y-16.109 E5.35365
G1 X-33.524 Y-16.822 E5.39304
G1 X-33.113 Y-17.497 E5.43246
G1 X-32.637 Y-18.127 E5.47186
G1 X-32.177 Y-18.628 E5.50579
G1 X-31.628 Y-19.177 E5.54452
G1 X-31.042 Y-19.707 E5.58394
G1 X-30.406 Y-20.174 E5.62331
G1 X-29.726 Y-20.575 E5.66269
G1 X-29.106 Y-20.865 E5.69684
G1 X-28.384 Y-21.165 E5.73585
G1 X-27.64 Y-21.431 E5.77527
G1 X-26.874 Y-21.62 E5.81463
G1 X-26.092 Y-21.73 E5.85403
G1 X-25.391 Y-21.762 E5.88904
G1 X25.391 Y-21.762 E8.42256
G1 X26.18 Y-21.722 E8.46198
G1 X26.96 Y-21.603 E8.50134
G1 X27.725 Y-21.405 E8.54076
G1 X28.384 Y-21.165 E8.57575
G1 X29.106 Y-20.865 E8.61476
G1 X29.819 Y-20.525 E8.65417
G1 X30.494 Y-20.116 E8.69355
G1 X31.124 Y-19.64 E8.73294
G1 X31.628 Y-19.177 E8.76708
G1 X32.177 Y-18.628 E8.80582
G1 X32.707 Y-18.042 E8.84524
G1 X33.174 Y-17.406 E8.8846
G1 X33.575 Y-16.726 E8.92399
G1 X33.863 Y-16.109 E8.95796
G1 X34.163 Y-15.388 E8.99692
G1 X34.43 Y-14.645 E9.03631
G1 X34.619 Y-13.878 E9.07572
G1 X34.73 Y-13.097 E9.11507
G1 X34.762 Y-12.403 E9.14973
G1 X34.8 Y13.989 E10.46644
G1 X34.761 Y14.777 E10.5058
G1 X34.643 Y15.558 E10.54521
G1 X34.446 Y16.323 E10.58462
G1 X34.173 Y17.064 E10.62401
G1 X33.826 Y17.774 E10.66344
G1 X33.41 Y18.444 E10.70279
G1 X32.928 Y19.07 E10.7422
G1 X32.385 Y19.643 E10.78159
G1 X31.786 Y20.159 E10.82103
G1 X31.139 Y20.611 E10.86041
G1 X30.45 Y20.996 E10.89978
G1 X29.725 Y21.309 E10.93918
G1 X28.972 Y21.547 E10.97858
G1 X28.198 Y21.707 E11.01801
G1 X27.413 Y21.789 E11.05739
G1 X27 Y21.8 E11.078
G1 X24 Y21.8 E11.22767
G1 X23.211 Y21.76 E11.26708
G1 X22.431 Y21.641 E11.30645
G1 X21.666 Y21.443 E11.34587
G1 X20.926 Y21.169 E11.38524
G1 X20.217 Y20.821 E11.42464
G1 X19.546 Y20.403 E11.46408
G1 X18.922 Y19.92 E11.50345
G1 X18.349 Y19.377 E11.54284
G1 X17.834 Y18.778 E11.58225
G1 X17.383 Y18.13 E11.62164
G1 X16.999 Y17.439 E11.66108
G1 X16.687 Y16.714 E11.70045
G1 X16.45 Y15.961 E11.73984
G1 X16.291 Y15.187 E11.77926
G1 X16.2 Y14.013 E11.83801
G1 X16.172 Y-3.167 E12.69512
G0 F3600 X16.571 Y-3.567
G1 F1800 X-16.6 Y-3.595 E14.35003
G1 X-16.6 Y14 E15.22785
G1 X-16.64 Y14.768 E15.26621
G1 X-16.759 Y15.528 E15.30459
G1 X-16.957 Y16.271 E15.34296
G1 X-17.231 Y16.99 E15.38134
G1 X-17.578 Y17.676 E15.4197
G1 X-17.994 Y18.323 E15.45807
G1 X-18.475 Y18.923 E15.49644
G1 X-19.016 Y19.47 E15.53482
G1 X-19.611 Y19.958 E15.57321
G1 X-20.253 Y20.381 E15.61157
G1 X-20.936 Y20.736 E15.64997
G1 X-21.651 Y21.017 E15.6883
G1 X-22.393 Y21.223 E15.72672
G1 X-23.151 Y21.351 E15.76507
G1 X-24 Y21.4 E15.8075
G1 X-27 Y21.4 E15.95717
G1 X-27.768 Y21.36 E15.99554
G1 X-28.528 Y21.241 E16.03391
G1 X-29.271 Y21.043 E16.07228
G1 X-29.99 Y20.769 E16.11066
G1 X-30.676 Y20.422 E16.14902
G1 X-31.323 Y20.006 E16.18739
G1 X-31.923 Y19.525 E16.22576
G1 X-32.47 Y18.984 E16.26414
G1 X-32.958 Y18.389 E16.30253
G1 X-33.381 Y17.747 E16.34089
G1 X-33.736 Y17.064 E16.37929
G1 X-34.017 Y16.349 E16.41762
G1 X-34.223 Y15.607 E16.45604
G1 X-34.351 Y14.849 E16.49439
G1 X-34.4 Y13.989 E16.53737
G1 X-34.362 Y-12.403 E17.85407
G1 X-34.321 Y-13.171 E17.89244
G1 X-34.2 Y-13.93 E17.93079
G1 X-34.002 Y-14.673 E17.96915
G1 X-33.794 Y-15.235 E17.99904
G1 X-33.494 Y-15.956 E18.038
G1 X-33.162 Y-16.65 E18.07639
G1 X-32.76 Y-17.305 E18.11473
G1 X-32.292 Y-17.916 E18.15313
G1 X-31.895 Y-18.346 E18.18232
G1 X-31.346 Y-18.895 E18.22106
G1 X-30.774 Y-19.409 E18.25942
G1 X-30.152 Y-19.862 E18.29781
G1 X-29.487 Y-20.248 E18.33618
G1 X-28.952 Y-20.496 E18.36559
G1 X-28.23 Y-20.796 E18.4046
G1 X-27.506 Y-21.053 E18.44293
G1 X-26.758 Y-21.235 E18.48134
G1 X-25.996 Y-21.337 E18.51969
G1 X-25.391 Y-21.362 E18.5499
G1 X25.391 Y-21.362 E21.08343
G1 X26.159 Y-21.322 E21.12179
G1 X26.919 Y-21.203 E21.16017
G1 X27.662 Y-21.005 E21.19853
G1 X28.23 Y-20.796 E21.22873
G1 X28.952 Y-20.496 E21.26774
G1 X29.646 Y-20.164 E21.30612
G1 X30.302 Y-19.762 E21.3445
G1 X30.913 Y-19.294 E21.3829
G1 X31.346 Y-18.895 E21.41227
G1 X31.895 Y-18.346 E21.45101
G1 X32.409 Y-17.774 E21.48938
G1 X32.862 Y-17.152 E21.52776
G1 X33.248 Y-16.487 E21.56613
G1 X33.494 Y-15.956 E21.59532
G1 X33.794 Y-15.235 E21.63428
G1 X34.052 Y-14.51 E21.67268
G1 X34.234 Y-13.763 E21.71103
G1 X34.337 Y-13.001 E21.7494
G1 X34.362 Y-12.403 E21.77926
G1 X34.4 Y13.989 E23.09596
G1 X34.361 Y14.758 E23.13437
G1 X34.243 Y15.518 E23.17275
G1 X34.046 Y16.261 E23.21109
G1 X33.773 Y16.98 E23.24946
G1 X33.427 Y17.667 E23.28784
G1 X33.012 Y18.315 E23.32623
G1 X32.532 Y18.915 E23.36457
G1 X31.992 Y19.463 E23.40295
G1 X31.398 Y19.952 E23.44133
G1 X30.756 Y20.376 E23.47972
G1 X30.074 Y20.731 E23.51808
G1 X29.359 Y21.014 E23.55644
G1 X28.618 Y21.221 E23.59482
G1 X27.86 Y21.35 E23.63318
G1 X27 Y21.4 E23.67616
G1 X24 Y21.4 E23.82583
G1 X23.232 Y21.36 E23.8642
G1 X22.472 Y21.241 E23.90258
G1 X21.729 Y21.043 E23.94094
G1 X21.01 Y20.769 E23.97933
G1 X20.324 Y20.422 E24.01768
G1 X19.677 Y20.006 E24.05606
G1 X19.077 Y19.525 E24.09442
G1 X18.53 Y18.984 E24.13281
G1 X18.042 Y18.389 E24.1712
G1 X17.619 Y17.747 E24.20956
G1 X17.264 Y17.064 E24.24796
G1 X16.983 Y16.349 E24.28629
G1 X16.777 Y15.607 E24.3247
G1 X16.649 Y14.849 E24.36306
G1 X16.6 Y14.012 E24.40489
G1 X16.571 Y-3.567 E25.28191
G0 F3600 X16.971 Y-3.967
G1 F1800 X-17 Y-3.996 E26.97673
G1 X-17 Y14 E27.87455
G1 X-17.04 Y14.747 E27.91187
G1 X-17.159 Y15.485 E27.94917
G1 X-17.357 Y16.207 E27.98652
G1 X-17.63 Y16.903 E28.02382
G1 X-17.977 Y17.566 E28.06115
G1 X-18.392 Y18.189 E28.0985
G1 X-18.871 Y18.763 E28.1358
G1 X-19.408 Y19.284 E28.17312
G1 X-19.998 Y19.743 E28.21042
G1 X-20.634 Y20.138 E28.24777
G1 X-21.308 Y20.462 E28.28508
G1 X-22.013 Y20.712 E28.3224
G1 X-22.741 Y20.886 E28.35974
G1 X-23.483 Y20.981 E28.39706
G1 X-24 Y21 E28.42287
G1 X-27 Y21 E28.57254
G1 X-27.747 Y20.96 E28.60986
G1 X-28.485 Y20.841 E28.64716
G1 X-29.207 Y20.643 E28.68451
G1 X-29.903 Y20.37 E28.72181
G1 X-30.566 Y20.023 E28.75914
G1 X-31.189 Y19.608 E28.79649
G1 X-31.763 Y19.129 E28.83379
G1 X-32.284 Y18.592 E28.87111
G1 X-32.743 Y18.002 E28.90841
G1 X-33.138 Y17.366 E28.94576
G1 X-33.462 Y16.692 E28.98307
G1 X-33.712 Y15.987 E29.02039
G1 X-33.886 Y15.259 E29.05773
G1 X-33.981 Y14.517 E29.09505
G1 X-34 Y13.99 E29.12136
G1 X-33.962 Y-12.402 E30.43806
G1 X-33.921 Y-13.149 E30.47539
G1 X-33.8 Y-13.887 E30.5127
G1 X-33.602 Y-14.609 E30.55005
G1 X-33.425 Y-15.081 E30.5752
G1 X-33.125 Y-15.802 E30.61416
G1 X-32.801 Y-16.476 E30.65147
G1 X-32.407 Y-17.112 E30.6888
G1 X-31.947 Y-17.703 E30.72616
G1 X-31.612 Y-18.063 E30.75069
G1 X-31.063 Y-18.612 E30.78943
G1 X-30.506 Y-19.112 E30.82677
G1 X-29.9 Y-19.549 E30.86404
G1 X-29.25 Y-19.92 E30.90138
G1 X-28.799 Y-20.126 E30.92612
G1 X-28.077 Y-20.426 E30.96513
G1 X-27.372 Y-20.676 E31.00245
G1 X-26.644 Y-20.849 E31.03978
G1 X-25.902 Y-20.943 E31.07709
G1 X-25.391 Y-20.962 E31.1026
G1 X25.391 Y-20.962 E33.63613
G1 X26.138 Y-20.922 E33.67345
G1 X26.876 Y-20.803 E33.71074
G1 X27.598 Y-20.605 E33.74809
G1 X28.077 Y-20.426 E33.77361
G1 X28.799 Y-20.126 E33.81261
G1 X29.473 Y-19.803 E33.8499
G1 X30.11 Y-19.409 E33.88727
G1 X30.7 Y-18.95 E33.92456
G1 X31.063 Y-18.612 E33.94931
G1 X31.612 Y-18.063 E33.98804
G1 X32.112 Y-17.506 E34.02538
G1 X32.549 Y-16.9 E34.06266
G1 X32.92 Y-16.25 E34.1
G1 X33.125 Y-15.802 E34.12458
G1 X33.425 Y-15.081 E34.16354
G1 X33.675 Y-14.376 E34.20086
G1 X33.848 Y-13.648 E34.23819
G1 X33.943 Y-12.906 E34.27551
G1 X33.962 Y-12.402 E34.30067
G1 X34 Y13.99 E35.61738
G1 X33.961 Y14.737 E35.65469
G1 X33.843 Y15.476 E35.69203
G1 X33.646 Y16.197 E35.72932
G1 X33.374 Y16.894 E35.76665
G1 X33.028 Y17.558 E35.804
G1 X32.614 Y18.181 E35.84132
G1 X32.136 Y18.756 E35.87862
G1 X31.599 Y19.277 E35.91595
G1 X31.01 Y19.738 E35.95327
G1 X30.375 Y20.133 E35.99058
G1 X29.701 Y20.458 E36.02791
G1 X28.996 Y20.709 E36.06524
G1 X28.269 Y20.884 E36.10255
G1 X27.527 Y20.98 E36.13988
G1 X27 Y21 E36.16619
G1 X24 Y21 E36.31586
G1 X23.253 Y20.96 E36.35318
G1 X22.515 Y20.841 E36.39048
G1 X21.793 Y20.643 E36.42783
G1 X21.097 Y20.37 E36.46513
G1 X20.434 Y20.023 E36.50246
G1 X19.811 Y19.608 E36.5398
G1 X19.237 Y19.129 E36.5771
G1 X18.716 Y18.592 E36.61443
G1 X18.257 Y18.002 E36.65173
G1 X17.862 Y17.366 E36.68908
G1 X17.538 Y16.692 E36.72639
G1 X17.288 Y15.987 E36.7637
G1 X17.114 Y15.259 E36.80105
G1 X17.019 Y14.517 E36.83837
G1 X17 Y14.011 E36.86363
G1 X16.971 Y-3.967 E37.76056
G0 F3600 X17.37 Y-4.366
G1 F1800 X-17.4 Y-4.396 E39.49524
G1 X-17.4 Y14 E40.41302
G1 X-17.44 Y14.725 E40.44925
G1 X-17.559 Y15.442 E40.48551
G1 X-17.757 Y16.141 E40.52175
G1 X-18.03 Y16.814 E40.55799
G1 X-18.375 Y17.453 E40.59422
G1 X-18.789 Y18.05 E40.63046
G1 X-19.265 Y18.598 E40.66667
G1 X-19.799 Y19.091 E40.70293
G1 X-20.384 Y19.521 E40.73916
G1 X-21.013 Y19.885 E40.77541
G1 X-21.678 Y20.178 E40.81167
G1 X-22.371 Y20.396 E40.84791
G1 X-23.083 Y20.536 E40.88411
G1 X-24 Y20.6 E40.92997
G1 X-27 Y20.6 E41.07964
G1 X-27.725 Y20.56 E41.11587
G1 X-28.442 Y20.441 E41.15213
G1 X-29.141 Y20.243 E41.18838
G1 X-29.814 Y19.97 E41.22461
G1 X-30.453 Y19.625 E41.26084
G1 X-31.05 Y19.211 E41.29708
G1 X-31.598 Y18.735 E41.3333
G1 X-32.091 Y18.201 E41.36956
G1 X-32.521 Y17.616 E41.40578
G1 X-32.885 Y16.987 E41.44204
G1 X-33.178 Y16.322 E41.47829
G1 X-33.396 Y15.629 E41.51453
G1 X-33.536 Y14.917 E41.55074
G1 X-33.6 Y13.99 E41.59709
G1 X-33.562 Y-12.402 E42.9138
G1 X-33.521 Y-13.127 E42.95003
G1 X-33.401 Y-13.843 E42.98625
G1 X-33.202 Y-14.542 E43.0225
G1 X-33.056 Y-14.927 E43.04305
G1 X-32.756 Y-15.648 E43.08201
G1 X-32.44 Y-16.303 E43.11829
G1 X-32.055 Y-16.918 E43.15449
G1 X-31.604 Y-17.488 E43.19075
G1 X-31.329 Y-17.78 E43.21076
G1 X-30.78 Y-18.329 E43.2495
G1 X-30.239 Y-18.813 E43.28571
G1 X-29.648 Y-19.236 E43.32197
G1 X-29.014 Y-19.59 E43.3582
G1 X-28.645 Y-19.757 E43.37841
G1 X-27.923 Y-20.057 E43.41741
G1 X-27.238 Y-20.298 E43.45364
G1 X-26.531 Y-20.463 E43.48986
G1 X-25.81 Y-20.549 E43.52609
G1 X-25.391 Y-20.562 E43.547
G1 X25.391 Y-20.562 E46.08053
G1 X26.116 Y-20.522 E46.11675
G1 X26.833 Y-20.403 E46.15301
G1 X27.532 Y-20.205 E46.18926
G1 X27.923 Y-20.057 E46.21011
G1 X28.645 Y-19.757 E46.24912
G1 X29.3 Y-19.442 E46.28538
G1 X29.916 Y-19.056 E46.32165
G1 X30.485 Y-18.606 E46.35784
G1 X30.78 Y-18.329 E46.37803
G1 X31.329 Y-17.78 E46.41676
G1 X31.813 Y-17.239 E46.45298
G1 X32.236 Y-16.648 E46.48924
G1 X32.59 Y-16.014 E46.52547
G1 X32.756 Y-15.648 E46.54552
G1 X33.056 Y-14.927 E46.58448
G1 X33.297 Y-14.242 E46.62071
G1 X33.462 Y-13.535 E46.65693
G1 X33.549 Y-12.814 E46.69316
G1 X33.562 Y-12.402 E46.71372
G1 X33.6 Y13.99 E48.03043
G1 X33.561 Y14.716 E48.0667
G1 X33.443 Y15.432 E48.1029
G1 X33.246 Y16.132 E48.13918
G1 X32.974 Y16.805 E48.1754
G1 X32.63 Y17.445 E48.21165
G1 X32.217 Y18.043 E48.2479
G1 X31.741 Y18.591 E48.28412
G1 X31.208 Y19.085 E48.32037
G1 X30.624 Y19.516 E48.35659
G1 X29.996 Y19.881 E48.39282
G1 X29.331 Y20.175 E48.4291
G1 X28.639 Y20.393 E48.4653
G1 X27.926 Y20.535 E48.50157
G1 X27 Y20.6 E48.54788
G1 X24 Y20.6 E48.69755
G1 X23.275 Y20.56 E48.73377
G1 X22.558 Y20.441 E48.77003
G1 X21.859 Y20.243 E48.80628
G1 X21.186 Y19.97 E48.84251
G1 X20.547 Y19.625 E48.87874
G1 X19.95 Y19.211 E48.91499
G1 X19.402 Y18.735 E48.9512
G1 X18.909 Y18.201 E48.98746
G1 X18.479 Y17.616 E49.02368
G1 X18.115 Y16.987 E49.05994
G1 X17.822 Y16.322 E49.09619
G1 X17.604 Y15.629 E49.13244
G1 X17.464 Y14.917 E49.16864
G1 X17.4 Y14.011 E49.21395
G1 X17.37 Y-4.366 E50.13079
G0 F3600 X17.769 Y-4.766
G1 F1800 X-17.8 Y-4.796 E51.90533
G1 X-17.8 Y14 E52.84307
G1 X-17.84 Y14.703 E52.8782
G1 X-17.959 Y15.397 E52.91333
G1 X-18.157 Y16.072 E52.94842
G1 X-18.429 Y16.721 E52.98353
G1 X-18.774 Y17.335 E53.01867
G1 X-19.185 Y17.906 E53.05377
G1 X-19.659 Y18.427 E53.08891
G1 X-20.189 Y18.891 E53.12405
G1 X-20.768 Y19.291 E53.15916
G1 X-21.389 Y19.623 E53.19429
G1 X-22.043 Y19.883 E53.2294
G1 X-22.723 Y20.067 E53.26455
G1 X-23.419 Y20.173 E53.29967
G1 X-24 Y20.2 E53.32869
G1 X-27 Y20.2 E53.47836
G1 X-27.703 Y20.16 E53.51349
G1 X-28.397 Y20.041 E53.54862
G1 X-29.072 Y19.843 E53.58371
G1 X-29.721 Y19.571 E53.61882
G1 X-30.335 Y19.226 E53.65396
G1 X-30.906 Y18.815 E53.68906
G1 X-31.427 Y18.341 E53.7242
G1 X-31.891 Y17.811 E53.75934
G1 X-32.291 Y17.232 E53.79445
G1 X-32.623 Y16.611 E53.82958
G1 X-32.883 Y15.957 E53.86469
G1 X-33.067 Y15.277 E53.89984
G1 X-33.173 Y14.581 E53.93496
G1 X-33.2 Y13.991 E53.96443
G1 X-33.162 Y-12.401 E55.28113
G1 X-33.121 Y-13.104 E55.31627
G1 X-33.001 Y-13.797 E55.35135
G1 X-32.686 Y-14.774 E55.40257
G1 X-32.386 Y-15.495 E55.44153
G1 X-32.079 Y-16.128 E55.47663
G1 X-31.703 Y-16.723 E55.51174
G1 X-31.046 Y-17.497 E55.56239
G1 X-30.497 Y-18.046 E55.60113
G1 X-29.972 Y-18.515 E55.63625
G1 X-29.397 Y-18.921 E55.67137
G1 X-28.492 Y-19.387 E55.72215
G1 X-27.77 Y-19.687 E55.76116
G1 X-27.106 Y-19.92 E55.79626
G1 X-26.419 Y-20.076 E55.83141
G1 X-25.391 Y-20.162 E55.88288
G1 X25.391 Y-20.162 E58.4164
G1 X26.094 Y-20.122 E58.45153
G1 X26.788 Y-20.003 E58.48666
G1 X27.77 Y-19.687 E58.53813
G1 X28.492 Y-19.387 E58.57713
G1 X29.126 Y-19.081 E58.61226
G1 X29.721 Y-18.704 E58.6474
G1 X30.497 Y-18.046 E58.69816
G1 X31.046 Y-17.497 E58.73689
G1 X31.515 Y-16.972 E58.77201
G1 X31.921 Y-16.397 E58.80713
G1 X32.386 Y-15.495 E58.85776
G1 X32.686 Y-14.774 E58.89672
G1 X32.919 Y-14.11 E58.93183
G1 X33.076 Y-13.423 E58.96698
G1 X33.162 Y-12.401 E59.01815
G1 X33.2 Y13.991 E60.33486
G1 X33.161 Y14.694 E60.36998
G1 X33.043 Y15.388 E60.4051
G1 X32.846 Y16.064 E60.44023
G1 X32.575 Y16.713 E60.47532
G1 X32.231 Y17.328 E60.51048
G1 X31.82 Y17.9 E60.54562
G1 X31.347 Y18.421 E60.58072
G1 X30.818 Y18.885 E60.61583
G1 X30.239 Y19.286 E60.65097
G1 X29.619 Y19.62 E60.6861
G1 X28.965 Y19.88 E60.72121
G1 X28.286 Y20.065 E60.75632
G1 X27.59 Y20.172 E60.79146
G1 X27 Y20.2 E60.82092
G1 X24 Y20.2 E60.9706
G1 X23.297 Y20.16 E61.00572
G1 X22.603 Y20.041 E61.04085
G1 X21.928 Y19.843 E61.07595
G1 X21.279 Y19.571 E61.11106
G1 X20.665 Y19.226 E61.14619
G1 X20.094 Y18.815 E61.18129
G1 X19.573 Y18.341 E61.21643
G1 X19.109 Y17.811 E61.25158
G1 X18.709 Y17.232 E61.28669
G1 X18.377 Y16.611 E61.32182
G1 X18.117 Y15.957 E61.35693
G1 X17.933 Y15.277 E61.39207
