;FLAVOR:Marlin
;TIME:3626
;Filament used: 1.94815m
;Layer height: 0.1
;Generated with Cura_SteamEngine 3.6.0
M140 S60
M105
M190 S60
M104 S200
M105
M109 S200
M82 ;absolute extrusion mode
G28 ;Home
G1 Z15.0 F6000 ;Move the platform down 15mm
;Prime the extruder
G92 E0
G1 F200 E3
G92 E0
G92 E0
G1 F1500 E-6.5
;LAYER_COUNT:219
;LAYER:0
M107
G0 F3600 X-.813 Y-3.291 Z0.3
;TYPE:SKIRT
G1 F1500 E0
G1 F1800 X-1.985 Y-3.2 E0.05865
G1 X-16.172 Y-3.174 E0.76644
G1 X-16.2 Y14.013 E1.6239
G1 X-16.241 Y14.801 E1.66327
G1 X-16.362 Y15.582 E1.7027
G1 X-16.561 Y16.346 E1.74209
G1 X-16.836 Y17.086 E1.78147
G1 X-17.185 Y17.794 E1.82085
G1 X-17.604 Y18.464 E1.86028
G1 X-18.088 Y19.088 E1.89968
G1 X-18.633 Y19.66 E1.93909
G1 X-19.232 Y20.173 E1.97844
G1 X-19.881 Y20.624 E2.01787
G1 X-20.572 Y21.006 E2.05726
G1 X-21.298 Y21.317 E2.09666
G1 X-22.052 Y21.553 E2.13608
G1 X-22.825 Y21.711 E2.17544
G1 X-24 Y21.8 E2.23423
G1 X-27 Y21.8 E2.3839
G1 X-27.789 Y21.76 E2.42332
G1 X-28.569 Y21.641 E2.46268
G1 X-29.334 Y21.443 E2.50211
G1 X-30.074 Y21.169 E2.54147
G1 X-30.783 Y20.821 E2.58088
G1 X-31.454 Y20.403 E2.62032
G1 X-32.078 Y19.92 E2.65969
G1 X-32.651 Y19.377 E2.69907
G1 X-33.166 Y18.778 E2.73848
G1 X-33.617 Y18.13 E2.77787
G1 X-34.001 Y17.439 E2.81731
G1 X-34.313 Y16.714 E2.85669
G1 X-34.55 Y15.961 E2.89607
G1 X-34.709 Y15.187 E2.93549
G1 X-34.79 Y14.402 E2.97486
G1 X-34.8 Y13.989 E2.99547
G1 X-34.762 Y-12.403 E4.31218
G1 X-34.721 Y-13.192 E4.35159
G1 X-34.6 Y-13.972 E4.39097
G1 X-34.401 Y-14.736 E4.43036
G1 X-34.163 Y-15.388 E4.46499
G1 X-33.863 Y-16.109 E4.50395
G1 X-33.524 Y-16.822 E4.54334
G1 X-33.113 Y-17.497 E4.58277
G1 X-32.637 Y-18.127 E4.62216
G1 X-32.177 Y-18.628 E4.65609
G1 X-31.628 Y-19.177 E4.69483
G1 X-31.042 Y-19.707 E4.73425
G1 X-30.406 Y-20.174 E4.77361
G1 X-29.726 Y-20.575 E4.813
G1 X-29.106 Y-20.865 E4.84714
G1 X-28.384 Y-21.165 E4.88615
G1 X-27.64 Y-21.431 E4.92557
G1 X-26.874 Y-21.62 E4.96493
G1 X-26.092 Y-21.73 E5.00433
G1 X-25.404 Y-21.762 E5.03869
G1 X-2.013 Y-21.8 E6.20568
G1 X-1.224 Y-21.761 E6.24509
G1 X-.443 Y-21.643 E6.28449
G1 X0.322 Y-21.446 E6.3239
G1 X1.063 Y-21.174 E6.36328
G1 X1.772 Y-20.827 E6.40267
G1 X2.443 Y-20.411 E6.44205
G1 X3.069 Y-19.929 E6.48147
G1 X3.642 Y-19.386 E6.52085
G1 X4.158 Y-18.788 E6.56026
G1 X4.61 Y-18.14 E6.59968
G1 X4.995 Y-17.451 E6.63905
G1 X5.308 Y-16.726 E6.67845
G1 X5.546 Y-15.973 E6.71785
G1 X5.707 Y-15.2 E6.75724
G1 X5.789 Y-14.414 E6.79667
G1 X5.8 Y-14 E6.81733
G1 X5.8 Y-11 E6.967
G1 X5.76 Y-10.211 E7.00642
G1 X5.641 Y-9.431 E7.04578
G1 X5.443 Y-8.666 E7.0852
G1 X5.169 Y-7.926 E7.12457
G1 X4.821 Y-7.217 E7.16398
G1 X4.403 Y-6.546 E7.20342
G1 X3.92 Y-5.922 E7.24278
G1 X3.377 Y-5.349 E7.28217
G1 X2.778 Y-4.834 E7.32158
G1 X2.13 Y-4.383 E7.36097
G1 X1.439 Y-3.999 E7.40041
G1 X0.714 Y-3.687 E7.43978
G1 X-0.039 Y-3.45 E7.47917
G1 X-.813 Y-3.291 E7.51859
G0 F3600 X-1.151 Y-3.649
G1 F1800 X-1.986 Y-3.6 E7.56032
G1 X-16.571 Y-3.573 E8.28797
G1 X-16.6 Y14.012 E9.16529
G1 X-16.641 Y14.78 E9.20366
G1 X-16.762 Y15.54 E9.24205
G1 X-16.961 Y16.283 E9.28043
G1 X-17.236 Y17.001 E9.31879
G1 X-17.584 Y17.687 E9.35716
G1 X-18.001 Y18.333 E9.39553
G1 X-18.483 Y18.932 E9.43388
G1 X-19.025 Y19.478 E9.47227
G1 X-19.621 Y19.965 E9.51066
G1 X-20.263 Y20.387 E9.54899
G1 X-20.947 Y20.741 E9.58742
G1 X-21.663 Y21.021 E9.62577
G1 X-22.404 Y21.226 E9.66413
G1 X-23.163 Y21.353 E9.70252
G1 X-24 Y21.4 E9.74435
G1 X-27 Y21.4 E9.89402
G1 X-27.768 Y21.36 E9.93239
G1 X-28.528 Y21.241 E9.97076
G1 X-29.271 Y21.043 E10.00913
G1 X-29.99 Y20.769 E10.04751
G1 X-30.676 Y20.422 E10.08587
G1 X-31.323 Y20.006 E10.12424
G1 X-31.923 Y19.525 E10.16261
G1 X-32.47 Y18.984 E10.20099
G1 X-32.958 Y18.389 E10.23938
G1 X-33.381 Y17.747 E10.27774
G1 X-33.736 Y17.064 E10.31614
G1 X-34.017 Y16.349 E10.35447
G1 X-34.223 Y15.607 E10.39289
G1 X-34.351 Y14.849 E10.43124
G1 X-34.4 Y13.989 E10.47422
G1 X-34.362 Y-12.403 E11.79092
G1 X-34.321 Y-13.171 E11.82929
G1 X-34.2 Y-13.93 E11.86764
G1 X-34.002 Y-14.673 E11.906
G1 X-33.794 Y-15.235 E11.93589
G1 X-33.494 Y-15.956 E11.97486
G1 X-33.162 Y-16.65 E12.01324
G1 X-32.76 Y-17.305 E12.05158
G1 X-32.292 Y-17.916 E12.08998
G1 X-31.895 Y-18.346 E12.11917
G1 X-31.346 Y-18.895 E12.15791
G1 X-30.774 Y-19.409 E12.19628
G1 X-30.152 Y-19.862 E12.23466
G1 X-29.487 Y-20.248 E12.27303
G1 X-28.952 Y-20.496 E12.30245
G1 X-28.23 Y-20.796 E12.34145
G1 X-27.506 Y-21.053 E12.37978
G1 X-26.758 Y-21.235 E12.41819
G1 X-25.996 Y-21.337 E12.45654
G1 X-25.403 Y-21.362 E12.48615
G1 X-2.012 Y-21.4 E13.65314
G1 X-1.244 Y-21.361 E13.6915
G1 X-.484 Y-21.243 E13.72987
G1 X0.26 Y-21.047 E13.76826
G1 X0.979 Y-20.774 E13.80663
G1 X1.666 Y-20.428 E13.845
G1 X2.313 Y-20.013 E13.88335
G1 X2.914 Y-19.533 E13.92173
G1 X3.462 Y-18.993 E13.96011
G1 X3.951 Y-18.399 E13.99849
G1 X4.375 Y-17.757 E14.03688
G1 X4.731 Y-17.075 E14.07526
G1 X5.014 Y-16.36 E14.11362
G1 X5.221 Y-15.619 E14.15201
G1 X5.35 Y-14.861 E14.19037
G1 X5.4 Y-14 E14.2334
G1 X5.4 Y-11 E14.38307
G1 X5.36 Y-10.232 E14.42143
G1 X5.241 Y-9.472 E14.45981
G1 X5.043 Y-8.729 E14.49817
G1 X4.769 Y-8.01 E14.53656
G1 X4.422 Y-7.324 E14.57492
G1 X4.006 Y-6.677 E14.61329
G1 X3.525 Y-6.077 E14.65166
G1 X2.984 Y-5.53 E14.69004
G1 X2.389 Y-5.042 E14.72843
G1 X1.747 Y-4.619 E14.76679
G1 X1.064 Y-4.264 E14.80519
G1 X0.349 Y-3.983 E14.84352
G1 X-.393 Y-3.777 E14.88194
G1 X-1.151 Y-3.649 E14.92029
G0 F3600 X-.741 Y-4.114
G1 F1800 X-1.483 Y-4.019 E14.95761
G1 X-1.987 Y-4 E14.98277
G1 X-16.971 Y-3.972 E15.73033
G1 X-17 Y14.011 E16.62751
G1 X-17.041 Y14.758 E16.66483
G1 X-17.162 Y15.497 E16.70219
G1 X-17.361 Y16.218 E16.73951
G1 X-17.635 Y16.914 E16.77682
G1 X-17.982 Y17.576 E16.81411
G1 X-18.398 Y18.198 E16.85144
G1 X-18.878 Y18.772 E16.88877
G1 X-19.417 Y19.291 E16.92611
G1 X-20.008 Y19.75 E16.96344
G1 X-20.644 Y20.143 E17.00074
G1 X-21.319 Y20.466 E17.03807
G1 X-22.024 Y20.715 E17.07537
G1 X-22.752 Y20.888 E17.1127
G1 X-23.494 Y20.982 E17.15002
G1 X-24 Y21 E17.17528
G1 X-27 Y21 E17.32495
G1 X-27.747 Y20.96 E17.36227
G1 X-28.485 Y20.841 E17.39957
G1 X-29.207 Y20.643 E17.43692
G1 X-29.903 Y20.37 E17.47422
G1 X-30.566 Y20.023 E17.51155
G1 X-31.189 Y19.608 E17.5489
G1 X-31.763 Y19.129 E17.58619
G1 X-32.284 Y18.592 E17.62352
G1 X-32.743 Y18.002 E17.66082
G1 X-33.138 Y17.366 E17.69817
G1 X-33.462 Y16.692 E17.73548
G1 X-33.712 Y15.987 E17.7728
G1 X-33.886 Y15.259 E17.81014
G1 X-33.981 Y14.517 E17.84746
G1 X-34 Y13.99 E17.87377
G1 X-33.962 Y-12.402 E19.19047
G1 X-33.921 Y-13.149 E19.2278
G1 X-33.8 Y-13.887 E19.26511
G1 X-33.602 Y-14.609 E19.30246
G1 X-33.425 Y-15.081 E19.32761
G1 X-33.125 Y-15.802 E19.36657
G1 X-32.801 Y-16.476 E19.40388
G1 X-32.407 Y-17.112 E19.4412
G1 X-31.947 Y-17.703 E19.47857
G1 X-31.612 Y-18.063 E19.5031
G1 X-31.063 Y-18.612 E19.54183
G1 X-30.506 Y-19.112 E19.57918
G1 X-29.9 Y-19.549 E19.61645
G1 X-29.25 Y-19.92 E19.65379
G1 X-28.799 Y-20.126 E19.67853
G1 X-28.077 Y-20.426 E19.71753
G1 X-27.372 Y-20.676 E19.75485
G1 X-26.644 Y-20.849 E19.79218
G1 X-25.902 Y-20.943 E19.8295
G1 X-25.402 Y-20.962 E19.85446
G1 X-2.011 Y-21 E21.02144
G1 X-1.264 Y-20.961 E21.05876
G1 X-.526 Y-20.843 E21.09605
G1 X0.196 Y-20.647 E21.13337
G1 X0.893 Y-20.374 E21.17072
G1 X1.557 Y-20.029 E21.20805
G1 X2.18 Y-19.615 E21.24537
G1 X2.755 Y-19.137 E21.28268
G1 X3.276 Y-18.6 E21.32
G1 X3.737 Y-18.011 E21.35732
G1 X4.132 Y-17.376 E21.39463
G1 X4.457 Y-16.702 E21.43196
G1 X4.709 Y-15.998 E21.46926
G1 X4.884 Y-15.27 E21.50662
G1 X4.98 Y-14.529 E21.5439
G1 X5 Y-14 E21.57031
G1 X5 Y-11 E21.71998
G1 X4.96 Y-10.253 E21.7573
G1 X4.841 Y-9.515 E21.79459
G1 X4.643 Y-8.793 E21.83194
G1 X4.37 Y-8.097 E21.86924
G1 X4.023 Y-7.434 E21.90658
G1 X3.608 Y-6.811 E21.94392
G1 X3.129 Y-6.237 E21.98122
G1 X2.592 Y-5.716 E22.01855
G1 X2.002 Y-5.257 E22.05584
G1 X1.366 Y-4.862 E22.0932
G1 X0.692 Y-4.538 E22.13051
G1 X-0.013 Y-4.288 E22.16782
G1 X-.741 Y-4.114 E22.20517
G0 F3600 X-1.083 Y-4.464
G1 F1800 X-1.988 Y-4.4 E22.25043
G1 X-17.37 Y-4.371 E23.01784
G1 X-17.4 Y14.011 E23.93493
G1 X-17.441 Y14.736 E23.97115
G1 X-17.562 Y15.452 E24.00738
G1 X-17.76 Y16.151 E24.04363
G1 X-18.034 Y16.824 E24.07988
G1 X-18.381 Y17.462 E24.11611
G1 X-18.795 Y18.058 E24.15232
G1 X-19.273 Y18.606 E24.1886
G1 X-19.808 Y19.097 E24.22482
G1 X-20.393 Y19.527 E24.26105
G1 X-21.022 Y19.89 E24.29728
G1 X-21.688 Y20.182 E24.33356
G1 X-22.381 Y20.398 E24.36977
G1 X-23.094 Y20.537 E24.40601
G1 X-24 Y20.6 E24.45132
G1 X-27 Y20.6 E24.60099
G1 X-27.725 Y20.56 E24.63722
G1 X-28.442 Y20.441 E24.67348
G1 X-29.141 Y20.243 E24.70973
G1 X-29.814 Y19.97 E24.74596
G1 X-30.453 Y19.625 E24.78219
G1 X-31.05 Y19.211 E24.81843
G1 X-31.598 Y18.735 E24.85465
G1 X-32.091 Y18.201 E24.89091
G1 X-32.521 Y17.616 E24.92713
G1 X-32.885 Y16.987 E24.96339
G1 X-33.178 Y16.322 E24.99964
G1 X-33.396 Y15.629 E25.03588
G1 X-33.536 Y14.917 E25.07209
G1 X-33.6 Y13.99 E25.11844
G1 X-33.562 Y-12.402 E26.43515
G1 X-33.521 Y-13.127 E26.47138
G1 X-33.401 Y-13.843 E26.5076
G1 X-33.202 Y-14.542 E26.54385
G1 X-33.056 Y-14.927 E26.5644
G1 X-32.756 Y-15.648 E26.60336
G1 X-32.44 Y-16.303 E26.63964
G1 X-32.055 Y-16.918 E26.67584
G1 X-31.604 Y-17.488 E26.7121
G1 X-31.329 Y-17.78 E26.73211
G1 X-30.78 Y-18.329 E26.77085
G1 X-30.239 Y-18.813 E26.80706
G1 X-29.648 Y-19.236 E26.84332
G1 X-29.014 Y-19.59 E26.87955
G1 X-28.645 Y-19.757 E26.89976
G1 X-27.923 Y-20.057 E26.93876
G1 X-27.238 Y-20.298 E26.97499
G1 X-26.531 Y-20.463 E27.01121
G1 X-25.81 Y-20.549 E27.04744
G1 X-25.402 Y-20.562 E27.0678
G1 X-2.011 Y-20.6 E28.23479
G1 X-1.285 Y-20.561 E28.27106
G1 X-.569 Y-20.443 E28.30726
G1 X0.131 Y-20.247 E28.34353
G1 X0.804 Y-19.975 E28.37974
G1 X1.444 Y-19.63 E28.41602
G1 X2.042 Y-19.218 E28.45225
G1 X2.59 Y-18.742 E28.48846
G1 X3.084 Y-18.209 E28.52472
G1 X3.515 Y-17.625 E28.56093
G1 X3.88 Y-16.997 E28.59717
G1 X4.174 Y-16.332 E28.63344
G1 X4.393 Y-15.64 E28.66965
G1 X4.535 Y-14.927 E28.70592
G1 X4.6 Y-14 E28.75228
G1 X4.6 Y-11 E28.90195
G1 X4.56 Y-10.275 E28.93818
G1 X4.441 Y-9.558 E28.97444
G1 X4.243 Y-8.859 E29.01069
G1 X3.97 Y-8.186 E29.04692
G1 X3.625 Y-7.547 E29.08315
G1 X3.211 Y-6.95 E29.11939
G1 X2.735 Y-6.402 E29.15561
G1 X2.201 Y-5.909 E29.19187
G1 X1.616 Y-5.479 E29.22809
G1 X0.987 Y-5.115 E29.26435
G1 X0.322 Y-4.822 E29.3006
G1 X-.371 Y-4.604 E29.33684
G1 X-1.083 Y-4.464 E29.37305
G0 F3600 X-.723 Y-4.933
G1 F1800 X-1.419 Y-4.827 E29.40817
G1 X-1.988 Y-4.8 E29.43659
G1 X-17.769 Y-4.771 E30.22391
G1 X-17.8 Y14.01 E31.1609
G1 X-17.841 Y14.713 E31.19603
G1 X-17.962 Y15.406 E31.23113
G1 X-18.16 Y16.082 E31.26627
G1 X-18.434 Y16.731 E31.30142
G1 X-18.779 Y17.344 E31.33651
G1 X-19.192 Y17.914 E31.37163
G1 X-19.667 Y18.434 E31.40676
G1 X-20.197 Y18.897 E31.44187
G1 X-20.777 Y19.296 E31.477
G1 X-21.398 Y19.628 E31.51213
G1 X-22.053 Y19.886 E31.54725
G1 X-22.733 Y20.069 E31.58238
G1 X-23.429 Y20.174 E31.6175
G1 X-24 Y20.2 E31.64602
G1 X-27 Y20.2 E31.79569
G1 X-27.703 Y20.16 E31.83082
G1 X-28.397 Y20.041 E31.86594
G1 X-29.072 Y19.843 E31.90104
G1 X-29.721 Y19.571 E31.93615
G1 X-30.335 Y19.226 E31.97128
G1 X-30.906 Y18.815 E32.00638
G1 X-31.427 Y18.341 E32.04152
G1 X-31.891 Y17.811 E32.07667
G1 X-32.291 Y17.232 E32.11178
G1 X-32.623 Y16.611 E32.14691
G1 X-32.883 Y15.957 E32.18202
G1 X-33.067 Y15.277 E32.21717
G1 X-33.173 Y14.581 E32.25229
G1 X-33.2 Y13.991 E32.28176
G1 X-33.162 Y-12.401 E33.59846
G1 X-33.121 Y-13.104 E33.63359
G1 X-33.001 Y-13.797 E33.66868
G1 X-32.686 Y-14.774 E33.71989
G1 X-32.386 Y-15.495 E33.75885
G1 X-32.079 Y-16.128 E33.79395
G1 X-31.703 Y-16.723 E33.82907
G1 X-31.046 Y-17.497 E33.87972
G1 X-30.497 Y-18.046 E33.91845
G1 X-29.972 Y-18.515 E33.95357
G1 X-29.397 Y-18.921 E33.98869
G1 X-28.492 Y-19.387 E34.03948
G1 X-27.77 Y-19.687 E34.07848
G1 X-27.106 Y-19.92 E34.11359
G1 X-26.419 Y-20.076 E34.14874
G1 X-25.401 Y-20.162 E34.19971
G1 X-2.01 Y-20.2 E35.36669
G1 X-1.307 Y-20.161 E35.40182
G1 X-.613 Y-20.043 E35.43694
G1 X0.063 Y-19.847 E35.47205
G1 X0.712 Y-19.575 E35.50716
G1 X1.327 Y-19.232 E35.54229
G1 X1.899 Y-18.821 E35.57743
G1 X2.42 Y-18.348 E35.61254
G1 X2.884 Y-17.819 E35.64764
G1 X3.286 Y-17.24 E35.68281
G1 X3.619 Y-16.62 E35.71792
G1 X3.88 Y-15.966 E35.75305
G1 X4.065 Y-15.287 E35.78816
G1 X4.172 Y-14.591 E35.82329
G1 X4.2 Y-14 E35.85281
G1 X4.2 Y-11 E36.00248
G1 X4.16 Y-10.297 E36.03761
G1 X4.041 Y-9.603 E36.07274
G1 X3.843 Y-8.928 E36.10784
G1 X3.571 Y-8.279 E36.14294
G1 X3.226 Y-7.665 E36.17808
G1 X2.815 Y-7.094 E36.21318
G1 X2.341 Y-6.573 E36.24832
G1 X1.811 Y-6.109 E36.28346
G1 X1.232 Y-5.709 E36.31857
G1 X0.611 Y-5.377 E36.3537
G1 X-0.043 Y-5.117 E36.38882
G1 X-.723 Y-4.933 E36.42396
G0 F3600 X-1.069 Y-5.275
G1 F1800 X-1.989 Y-5.2 E36.47001
G1 X-18.169 Y-5.17 E37.27724
G1 X-18.2 Y14.009 E38.23408
G1 X-18.241 Y14.689 E38.26807
G1 X-18.362 Y15.359 E38.30204
G1 X-18.56 Y16.011 E38.33603
G1 X-18.833 Y16.634 E38.36997
G1 X-19.177 Y17.222 E38.40396
G1 X-19.588 Y17.765 E38.43793
G1 X-20.059 Y18.256 E38.47188
G1 X-20.585 Y18.688 E38.50583
G1 X-21.158 Y19.056 E38.53981
G1 X-21.77 Y19.354 E38.57377
G1 X-22.413 Y19.579 E38.60776
G1 X-23.078 Y19.726 E38.64173
G1 X-24 Y19.8 E38.68788
G1 X-27 Y19.8 E38.83755
G1 X-27.68 Y19.76 E38.87153
G1 X-28.35 Y19.641 E38.90548
G1 X-29.002 Y19.444 E38.93946
G1 X-29.626 Y19.172 E38.97343
G1 X-30.214 Y18.828 E39.00741
G1 X-30.758 Y18.418 E39.0414
G1 X-31.249 Y17.947 E39.07534
G1 X-31.683 Y17.422 E39.10933
G1 X-32.052 Y16.85 E39.14329
G1 X-32.351 Y16.238 E39.17727
G1 X-32.576 Y15.596 E39.21121
G1 X-32.725 Y14.931 E39.24521
G1 X-32.8 Y13.992 E39.2922
G1 X-32.762 Y-12.4 E40.60891
G1 X-32.721 Y-13.08 E40.64289
G1 X-32.601 Y-13.75 E40.67685
G1 X-32.317 Y-14.62 E40.72251
G1 X-32.017 Y-15.341 E40.76147
G1 X-31.719 Y-15.953 E40.79543
G1 X-31.351 Y-16.526 E40.82941
G1 X-30.763 Y-17.214 E40.87456
G1 X-30.214 Y-17.763 E40.91329
G1 X-29.705 Y-18.216 E40.94729
G1 X-29.147 Y-18.605 E40.98122
G1 X-28.339 Y-19.018 E41.02649
G1 X-27.617 Y-19.318 E41.0655
G1 X-26.973 Y-19.542 E41.09952
G1 X-26.309 Y-19.689 E41.13345
G1 X-25.4 Y-19.762 E41.17894
G1 X-2.009 Y-19.8 E42.34593
G1 X-1.33 Y-19.761 E42.37986
G1 X-.659 Y-19.643 E42.41385
G1 X-0.007 Y-19.447 E42.44782
G1 X0.618 Y-19.176 E42.4818
G1 X1.206 Y-18.833 E42.51576
G1 X1.75 Y-18.424 E42.54972
G1 X2.243 Y-17.954 E42.5837
G1 X2.677 Y-17.43 E42.61765
G1 X3.047 Y-16.858 E42.65163
G1 X3.347 Y-16.247 E42.68559
G1 X3.574 Y-15.605 E42.71956
G1 X3.723 Y-14.941 E42.75352
G1 X3.8 Y-14 E42.80062
G1 X3.8 Y-11 E42.95029
G1 X3.76 Y-10.32 E42.98427
G1 X3.641 Y-9.65 E43.01822
G1 X3.444 Y-8.998 E43.0522
G1 X3.172 Y-8.374 E43.08616
G1 X2.828 Y-7.786 E43.12015
G1 X2.418 Y-7.242 E43.15414
G1 X1.947 Y-6.751 E43.18808
G1 X1.422 Y-6.317 E43.22206
G1 X0.85 Y-5.948 E43.25602
G1 X0.238 Y-5.649 E43.29001
G1 X-.404 Y-5.424 E43.32395
G1 X-1.069 Y-5.275 E43.35795
G0 F3600 X-1.407 Y-5.633
G1 F1800 X-1.99 Y-5.6 E43.38708
G1 X-18.568 Y-5.569 E44.21416
G1 X-18.6 Y14.009 E45.19091
G1 X-18.641 Y14.664 E45.22365
G1 X-18.761 Y15.31 E45.25643
G1 X-18.959 Y15.937 E45.28924
G1 X-19.232 Y16.535 E45.32203
G1 X-19.575 Y17.095 E45.3548
G1 X-19.983 Y17.609 E45.38754
G1 X-20.451 Y18.07 E45.42031
G1 X-20.972 Y18.471 E45.45311
G1 X-21.537 Y18.806 E45.48588
G1 X-22.139 Y19.069 E45.51866
G1 X-22.768 Y19.258 E45.55142
G1 X-23.416 Y19.368 E45.58421
G1 X-24 Y19.4 E45.61339
G1 X-27 Y19.4 E45.76306
G1 X-27.656 Y19.36 E45.79585
G1 X-28.302 Y19.241 E45.82862
G1 X-28.929 Y19.044 E45.86141
G1 X-29.527 Y18.772 E45.89419
G1 X-30.088 Y18.43 E45.92697
G1 X-30.603 Y18.022 E45.95975
G1 X-31.065 Y17.555 E45.99252
G1 X-31.466 Y17.035 E46.02528
G1 X-31.802 Y16.471 E46.05803
G1 X-32.066 Y15.869 E46.09083
G1 X-32.256 Y15.24 E46.12361
